www/assets/icons/work_outline.svg

<svg xmlns="http://www.w3.org/2000/svg" width="24" height="24" viewBox="0 0 24 24" fill='currentColor'><path fill-rule="evenodd" d="M14 6.5v-2h-4v2zm-10 2v11h16v-11zm16-2c1.11 0 2 .89 2 2v11c0 1.11-.89 2-2 2H4c-1.11 0-2-.89-2-2l.01-11c0-1.11.88-2 1.99-2h4v-2c0-1.11.89-2 2-2h4c1.11 0 2 .89 2 2v2z" clip-rule="evenodd"/></svg>

<svg width="24" height="24" viewBox="0 0 24 24" xmlns="http://www.w3.org/2000/svg" fill='currentColor'><path fill-rule="evenodd" clip-rule="evenodd" d="M14 6.5V4.5H10V6.5H14ZM4 8.5V19.5H20V8.5H4ZM20 6.5C21.11 6.5 22 7.39 22 8.5V19.5C22 20.61 21.11 21.5 20 21.5H4C2.89 21.5 2 20.61 2 19.5L2.01 8.5C2.01 7.39 2.89 6.5 4 6.5H8V4.5C8 3.39 8.89 2.5 10 2.5H14C15.11 2.5 16 3.39 16 4.5V6.5H20Z"/></svg>
